X:1
T: North's Farewell to the Caledonian Hunt
C:
R:Jig
Q:180
K:C
M:6/8
L:1/16
G2|G2A2c2 d4c2|e2c2e2 d4c2|e2d2c2 A4G2|G6 c4G2|G2A2c2 d4c2|e2c2e2 d4c2|e2d2c2 A4G2|G6c4e2|
c2d2e2 g4e2|a2f2a2 g4e2|c2d2e2 g4f2|e6 g4g2|a2f2a2 g4f2|e2d2c2 g4c2|e2d2c2 A4G2|G6c4e2|
c2d2e2 g4e2|a2f2a2 g4e2|c2d2e2 g4f2|e6 g4g2|a2f2a2 g4f2|e2d2c2 g4c2|e2d2c2 A4G2|G6c4G2|
G2A2c2 d4c2|e2c2e2 d4c2|e2d2c2 A4G2|G6 c4G2|G2A2c2 d4c2|e2c2e2 d4c2|e2d2c2 A4G2|G6c4||
